Include(stdmsg.h)
System.MeasureShift(1)
Copyright = { "Tetsuhiro KAWATA" }
TrackName = { "music" }

Time(0:1:0)
ResetXG();ResetGS();ResetGM();

TimeSignature(3,4)
Tempo(75)
調()

Track(1)
Channel(1)
Time(1:1:0)
Voice(1)

l8o4v150
l16
>c<bb-aa-gg-fee-dd-l8

cafga^
l16
cc#dd#eff#gg#aa#bl8

>c<bgfgf
l16
>c<bb-aa-gg-fee-dd-l8

cd^edc
b>c<r>c<^b
efgdcr

o5v80
c^e^g^
c^f^a^
c^e^g^
d^f^g^
c^e^g^
c^f^a^
d^f^g^
c^e^g^

Track(2)
Channel(2)
Time(1:1:0)
Voice(1)

l8o3v80
c^e^g^
c^f^a^
c^e^g^
d^f^g^
c^e^g^
c^f^a^
d^f^g^
c^e^g^

v150
l16
cc#dd#eff#gg#aa#bl8

>c<>d<>e<^>d<>c<
l16
cc#dd#eff#gg#aa#bl8

>c<^rb>d<>c<
l16
>c<bb-aa-gg-fee-dd-l8

cf>c<fgf
b^arrg
efedc^
