Include(stdmsg.h)
System.MeasureShift(1)
Copyright = { "Tetsuhiro KAWATA" }
TrackName = { "music" }

Time(0:1:0)
ResetXG();ResetGS();ResetGM();

TimeSignature(4,4)
Tempo(150)
調()

Track(1)
Channel(1)
Time(1:1:0)
Voice(1)

l8o4v150
grdred^c
>c<baagabg
cg^cdfed
>d<bba^gbg
cfgacdfe
>c<^frb^>c<^
ggab>e<^>d<^
dcrrcecr

o5v80
c^g^e^g^
c^a^f^a^
c^g^e^g^
d^g^f^g^
c^g^e^g^
c^a^f^a^
d^g^f^g^
c^g^e^g^

Track(2)
Channel(2)
Time(1:1:0)
Voice(1)

l8o3v80
c^g^e^g^
c^a^f^a^
c^g^e^g^
d^g^f^g^
c^g^e^g^
c^a^f^a^
d^g^f^g^
c^g^e^g^

v150
c^^crd^f
arf^^ra>d<
gerf^rde
bbagab>e<>c<
crcd^^ef
arb>c<>d<^>c<b
b>e<>d<^r>c<>e<r
ab^>c<b^>c<^
